packages/sources/icons/src/vitamix/pinterest-line.svg

<svg width="16" height="16" viewBox="0 0 16 16" xmlns="http://www.w3.org/2000/svg"><path fill-rule="evenodd" clip-rule="evenodd" d="M1.33337 8.00001C1.33337 11.682 4.31804 14.6667 8.00004 14.6667C11.682 14.6667 14.6667 11.682 14.6667 8.00001C14.6667 4.31801 11.682 1.33334 8.00004 1.33334C4.31804 1.33334 1.33337 4.31801 1.33337 8.00001ZM5.75604 12.1267C5.70804 12.3467 5.67604 12.57 5.66004 12.794C3.11545 11.5522 1.98478 8.53905 3.08464 5.92995C4.1845 3.32086 7.13149 2.02599 9.79718 2.98055C12.4629 3.93511 13.918 6.80634 13.1116 9.52054C12.3053 12.2347 9.51851 13.8457 6.76404 13.19C6.8707 12.9653 6.96004 12.7333 7.0307 12.4967C7.05737 12.392 7.12537 12.114 7.2227 11.714L7.22404 11.7093L7.3907 11.0233C7.71818 11.4408 8.22435 11.6781 8.7547 11.6627C10.5934 11.6627 11.8814 9.94801 11.8814 7.59334C11.8814 5.71934 10.3174 4.16668 8.22737 4.16668C5.76004 4.16668 4.09937 5.89934 4.09937 7.88934C4.09937 8.99734 4.52337 9.86334 5.2967 10.1827C5.37118 10.2205 5.45932 10.22 5.53337 10.1813C5.6099 10.1417 5.66326 10.0684 5.67737 9.98334C5.70137 9.89801 5.76737 9.64201 5.7947 9.53001C5.8447 9.39201 5.7987 9.23001 5.67804 9.13668C5.44077 8.82189 5.32013 8.43451 5.3367 8.04068C5.32687 7.30248 5.6139 6.59126 6.13337 6.06668C6.64237 5.5529 7.34331 5.27581 8.06604 5.30268C9.49404 5.30268 10.354 6.17201 10.354 7.48534C10.354 9.19401 9.61537 10.5173 8.6207 10.5173C8.36103 10.531 8.1109 10.4177 7.95004 10.2133C7.7867 10.0073 7.72804 9.73334 7.79204 9.47601C7.8167 9.36668 7.84604 9.25334 7.88004 9.12801C7.9107 9.01668 7.94337 8.90601 7.9907 8.74734C8.23604 7.92268 8.2927 7.69268 8.2927 7.39068C8.32337 7.15601 8.25004 6.91001 8.09137 6.72668C7.9327 6.54268 7.70337 6.43868 7.46337 6.44268C6.81004 6.44268 6.30604 7.13334 6.30604 8.02468C6.30138 8.35073 6.36591 8.67406 6.49537 8.97334C6.46848 9.03107 6.42867 9.20238 6.37724 9.42378L6.1167 10.5467L6.11204 10.5667C5.92537 11.3733 5.79804 11.93 5.75604 12.1267Z"/></svg>

<svg width="16" height="16" xmlns="http://www.w3.org/2000/svg"><path fill-rule="evenodd" clip-rule="evenodd" d="M1.333 8a6.667 6.667 0 1 0 13.334 0A6.667 6.667 0 0 0 1.333 8Zm4.423 4.127c-.048.22-.08.443-.096.667a5.333 5.333 0 0 1 4.137-9.813A5.333 5.333 0 0 1 6.764 13.19c.107-.225.196-.457.267-.693l.192-.783.001-.005.167-.686c.327.418.833.655 1.364.64 1.838 0 3.126-1.715 3.126-4.07 0-1.874-1.564-3.426-3.654-3.426C5.76 4.167 4.1 5.899 4.1 7.889c0 1.108.424 1.974 1.198 2.294a.258.258 0 0 0 .236-.002.273.273 0 0 0 .144-.198c.024-.085.09-.341.118-.453a.351.351 0 0 0-.117-.393 1.702 1.702 0 0 1-.341-1.096c-.01-.739.277-1.45.796-1.974a2.585 2.585 0 0 1 1.933-.764c1.428 0 2.288.869 2.288 2.182 0 1.709-.739 3.032-1.733 3.032a.8.8 0 0 1-.671-.304.857.857 0 0 1-.158-.737c.025-.11.054-.223.088-.348.03-.111.063-.222.11-.38.246-.825.303-1.055.303-1.357a.855.855 0 0 0-.202-.664.812.812 0 0 0-.628-.284c-.653 0-1.157.69-1.157 1.582-.005.326.06.65.19.948a3.783 3.783 0 0 0-.119.45l-.26 1.124-.005.02a145.75 145.75 0 0 0-.356 1.56Z"/></svg>
